src/app/components/images/Position_marker_7.svg

<svg width="43" height="43" fill="none" xmlns="http://www.w3.org/2000/svg"><mask id="a" style="mask-type:alpha" maskUnits="userSpaceOnUse" x="4" y="4" width="35" height="35"><circle cx="21.5" cy="21.5" r="17.5" fill="#B26060"/></mask><g mask="url(#a)"><path fill="#FA4B14" d="M-17.724-9.276H65.15v63.965h-82.874z"/><path d="M44.62 4C28.188 39.505 16.87 42.223-7.939 9.36l3.514 34.462 52.56-5.36L44.62 4z" fill="#EB3A3A"/></g><path d="M22.144 29.648c0 .112-.288.192-.864.24l-.264.024c-1.152 0-1.912-.128-2.28-.384-.144-.08-.216-.152-.216-.216 0-1.136.184-2.376.552-3.72.368-1.344.792-2.544 1.272-3.6a35.976 35.976 0 0 1 1.608-3.12c.768-1.344 1.432-2.408 1.992-3.192 0-.16-.608-.24-1.824-.24-1.2 0-2.008.208-2.424.624-.4.368-.672.952-.816 1.752l-.072.384c-.08.08-.416.024-1.008-.168-.576-.192-.92-.392-1.032-.6-.048-.08-.064-.784-.048-2.112.032-1.328.096-2.04.192-2.136.096-.096.744-.144 1.944-.144s2.128.008 2.784.024h1.848c1.552.032 2.608-.024 3.168-.168.176-.048.408.208.696.768s.432.992.432 1.296c-.272.192-.712.72-1.32 1.584-.592.864-1.224 1.92-1.896 3.168-.672 1.232-1.256 2.664-1.752 4.296-.496 1.632-.744 3.144-.744 4.536v.216c0 .432.024.728.072.888z" fill="#fff"/><g filter="url(#b)"><circle cx="21.5" cy="21.5" r="16.5" stroke="#A22B2B" stroke-width="2"/></g><defs><filter id="b" x="0" y="0" width="43" height="43" filterUnits="userSpaceOnUse" color-interpolation-filters="sRGB"><feFlood flood-opacity="0" result="BackgroundImageFix"/><feBlend in="SourceGraphic" in2="BackgroundImageFix" result="shape"/><feGaussianBlur stdDeviation="2" result="effect1_foregroundBlur_44_471"/></filter></defs></svg>

<svg width="43" height="43" viewBox="0 0 43 43" fill="none" xmlns="http://www.w3.org/2000/svg">
<mask id="mask0_44_471" style="mask-type:alpha" maskUnits="userSpaceOnUse" x="4" y="4" width="35" height="35">
<circle cx="21.5" cy="21.5" r="17.5" fill="#B26060"/>
</mask>
<g mask="url(#mask0_44_471)">
<rect x="-17.7241" y="-9.27586" width="82.8736" height="63.9655" fill="#FA4B14"/>
<path d="M44.6204 4C28.1879 39.5046 16.8689 42.2229 -7.93866 9.3595L-4.42453 43.8216L48.1346 38.4621L44.6204 4Z" fill="#EB3A3A"/>
</g>
<path d="M22.144 29.648C22.144 29.76 21.856 29.84 21.28 29.888L21.016 29.912C19.864 29.912 19.104 29.784 18.736 29.528C18.592 29.448 18.52 29.376 18.52 29.312C18.52 28.176 18.704 26.936 19.072 25.592C19.44 24.248 19.864 23.048 20.344 21.992C20.824 20.936 21.36 19.896 21.952 18.872C22.72 17.528 23.384 16.464 23.944 15.68C23.944 15.52 23.336 15.44 22.12 15.44C20.92 15.44 20.112 15.648 19.696 16.064C19.296 16.432 19.024 17.016 18.88 17.816L18.808 18.2C18.728 18.28 18.392 18.224 17.8 18.032C17.224 17.84 16.88 17.64 16.768 17.432C16.72 17.352 16.704 16.648 16.72 15.32C16.752 13.992 16.816 13.28 16.912 13.184C17.008 13.088 17.656 13.04 18.856 13.04C20.056 13.04 20.984 13.048 21.64 13.064C22.312 13.064 22.928 13.064 23.488 13.064C25.04 13.096 26.096 13.04 26.656 12.896C26.832 12.848 27.064 13.104 27.352 13.664C27.64 14.224 27.784 14.656 27.784 14.96C27.512 15.152 27.072 15.68 26.464 16.544C25.872 17.408 25.24 18.464 24.568 19.712C23.896 20.944 23.312 22.376 22.816 24.008C22.32 25.64 22.072 27.152 22.072 28.544V28.76C22.072 29.192 22.096 29.488 22.144 29.648Z" fill="white"/>
<g filter="url(#filter0_f_44_471)">
<circle cx="21.5" cy="21.5" r="16.5" stroke="#A22B2B" stroke-width="2"/>
</g>
<defs>
<filter id="filter0_f_44_471" x="0" y="0" width="43" height="43" filterUnits="userSpaceOnUse" color-interpolation-filters="sRGB">
<feFlood flood-opacity="0" result="BackgroundImageFix"/>
<feBlend mode="normal" in="SourceGraphic" in2="BackgroundImageFix" result="shape"/>
<feGaussianBlur stdDeviation="2" result="effect1_foregroundBlur_44_471"/>
</filter>
</defs>
</svg>
